icons/maximize.svg

<svg width="16" height="16" version="1.1" viewBox="0 0 16 16" xmlns="http://www.w3.org/2000/svg">
 <path d="M 1,1 V 6 L 2.8105,4.1895 4.623,6 6,4.623 4.1895,2.8105 6,1 Z M 10,1 11.8105,2.8105 10,4.623 11.377,6 13.1895,4.1895 15,6 V 1 Z m -9,9 v 5 H 6 L 4.1895,13.1895 6,11.377 4.623,10 2.8105,11.8105 Z M 11.377,10 10,11.377 11.8105,13.1895 10,15 h 5 v -5 l -1.8105,1.8105 z" fill="#fff" stroke-linecap="square" stroke-width="2" style="paint-order:stroke fill markers"/>
</svg>

<svg width="16" height="16"><path d="M1 1v5l1.81-1.81L4.623 6 6 4.623 4.19 2.81 6 1zm9 0 1.81 1.81L10 4.623 11.377 6l1.813-1.81L15 6V1zm-9 9v5h5l-1.81-1.81L6 11.377 4.623 10 2.81 11.81zm10.377 0L10 11.377l1.81 1.813L10 15h5v-5l-1.81 1.81" fill="#fff"/></svg>
